twotone/svg/local_car_wash.svg

<svg xmlns="http://www.w3.org/2000/svg" width="24" height="24"><path fill="none" d="M0 0h24v24H0V0z"/><g fill="currentColor"><path opacity=".3" d="M5.12 14l-.12.34V19h14v-4.66l-.12-.34H5.12zm2.38 4c-.83 0-1.5-.67-1.5-1.5S6.67 15 7.5 15s1.5.67 1.5 1.5S8.33 18 7.5 18zm9 0c-.83 0-1.5-.67-1.5-1.5s.67-1.5 1.5-1.5 1.5.67 1.5 1.5-.67 1.5-1.5 1.5z"/><path d="M15.5 3.5c0 .83.67 1.5 1.5 1.5s1.5-.67 1.5-1.5c0-1-1.5-2.7-1.5-2.7s-1.5 1.7-1.5 2.7zM13.5 3.5c0-1-1.5-2.7-1.5-2.7s-1.5 1.7-1.5 2.7c0 .83.67 1.5 1.5 1.5s1.5-.67 1.5-1.5zM8.5 3.5C8.5 2.5 7 .8 7 .8S5.5 2.5 5.5 3.5C5.5 4.33 6.17 5 7 5s1.5-.67 1.5-1.5zM21 14l-2.08-5.99C18.72 7.42 18.16 7 17.5 7h-11c-.66 0-1.21.42-1.42 1.01L3 14v8c0 .55.45 1 1 1h1c.55 0 1-.45 1-1v-1h12v1c0 .55.45 1 1 1h1c.55 0 1-.45 1-1v-8zM6.85 9h10.29l1.04 3H5.81l1.04-3zM19 19H5v-4.66l.12-.34h13.77l.11.34V19z"/><circle cx="7.5" cy="16.5" r="1.5"/><circle cx="16.5" cy="16.5" r="1.5"/></g></svg>

<?xml version="1.0" encoding="utf-8"?>
<!-- Generator: Adobe Illustrator 19.1.0, SVG Export Plug-In . SVG Version: 6.00 Build 0)  -->
<svg version="1.1" xmlns="http://www.w3.org/2000/svg" xmlns:xlink="http://www.w3.org/1999/xlink" x="0px" y="0px" width="24px"
	 height="24px" viewBox="0 0 24 24" enable-background="new 0 0 24 24" xml:space="preserve">
<g id="Bounding_Boxes">
	<path fill="none" d="M0,0h24v24H0V0z"/>
</g>
<g id="Duotone" fill="currentColor">
	<g id="ui_x5F_spec_x5F_header_copy_2">
	</g>
	<g>
		<path opacity="0.3" d="M5.12,14L5,14.34V19h1h12h1v-4.66L18.88,14H5.12z M7.5,18C6.67,18,6,17.33,6,16.5C6,15.67,6.67,15,7.5,15
			S9,15.67,9,16.5C9,17.33,8.33,18,7.5,18z M16.5,18c-0.83,0-1.5-0.67-1.5-1.5c0-0.83,0.67-1.5,1.5-1.5s1.5,0.67,1.5,1.5
			C18,17.33,17.33,18,16.5,18z"/>
		<path d="M15.5,3.5C15.5,4.33,16.17,5,17,5s1.5-0.67,1.5-1.5c0-1-1.5-2.7-1.5-2.7S15.5,2.5,15.5,3.5z"/>
		<path d="M13.5,3.5c0-1-1.5-2.7-1.5-2.7s-1.5,1.7-1.5,2.7C10.5,4.33,11.17,5,12,5S13.5,4.33,13.5,3.5z"/>
		<path d="M8.5,3.5c0-1-1.5-2.7-1.5-2.7S5.5,2.5,5.5,3.5C5.5,4.33,6.17,5,7,5S8.5,4.33,8.5,3.5z"/>
		<path d="M21,14l-2.08-5.99C18.72,7.42,18.16,7,17.5,7h-11C5.84,7,5.29,7.42,5.08,8.01L3,14v8c0,0.55,0.45,1,1,1h1
			c0.55,0,1-0.45,1-1v-1h12v1c0,0.55,0.45,1,1,1h1c0.55,0,1-0.45,1-1V14z M6.85,9h10.29l1.04,3H5.81L6.85,9z M19,19h-1H6H5v-4.66
			L5.12,14h13.77L19,14.34V19z"/>
		<circle cx="7.5" cy="16.5" r="1.5"/>
		<circle cx="16.5" cy="16.5" r="1.5"/>
	</g>
</g>
</svg>
